svgs/thin/rupiah-sign.svg

<svg xmlns="http://www.w3.org/2000/svg" viewBox="0 0 512 512"><!--! Font Awesome Pro 6.5.1 by @fontawesome - https://fontawesome.com License - https://fontawesome.com/license (Commercial License) Copyright 2023 Fonticons, Inc. --><path d="M0 72C0 49.9 17.9 32 40 32h80c75.1 0 136 60.9 136 136c0 68.7-50.9 125.5-117.1 134.7l60.6 166.6c1.5 4.2-.6 8.7-4.8 10.2s-8.7-.6-10.3-4.8L122.4 304c-.8 0-1.6 0-2.4 0H16V472c0 4.4-3.6 8-8 8s-8-3.6-8-8V296 72zM16 288H120c66.3 0 120-53.7 120-120s-53.7-120-120-120H40C26.7 48 16 58.7 16 72V288zm288-88V368h96c53 0 96-43 96-96s-43-96-96-96H328c-13.3 0-24 10.7-24 24zm96 184H304V504c0 4.4-3.6 8-8 8s-8-3.6-8-8V200c0-22.1 17.9-40 40-40h72c61.9 0 112 50.1 112 112s-50.1 112-112 112z"/></svg>

<svg xmlns="http://www.w3.org/2000/svg" viewBox="0 0 512 512"><!--! Font Awesome Pro 6.1.1 by @fontawesome - https://fontawesome.com License - https://fontawesome.com/license (Commercial License) Copyright 2022 Fonticons, Inc. --><path d="M0 72C0 49.91 17.91 32 40 32H120C195.1 32 256 92.89 256 168C256 236.7 205.1 293.5 138.9 302.7L199.5 469.3C201 473.4 198.9 478 194.7 479.5C190.6 481 185.1 478.9 184.5 474.7L122.4 303.1C121.6 303.1 120.8 303.1 120 303.1H16V472C16 476.4 12.42 480 8 480C3.582 480 .0003 476.4 .0003 472L0 72zM16 288H120C186.3 288 240 234.3 240 168C240 101.7 186.3 48 120 48H40C26.75 48 16 58.75 16 72V288zM400 384H304V504C304 508.4 300.4 512 296 512C291.6 512 288 508.4 288 504V200C288 177.9 305.9 160 328 160H400C461.9 160 512 210.1 512 272C512 333.9 461.9 384 400 384zM304 368H400C453 368 496 325 496 272C496 218.1 453 176 400 176H328C314.7 176 304 186.7 304 200V368z"/></svg>
